icons/System/download-cloud-2-line.svg

<svg viewBox="0 0 24 24" xmlns="http://www.w3.org/2000/svg"><path d="M13 13V18.585L14.8284 16.7574L16.2426 18.1716L12 22.4142L7.75736 18.1716L9.17157 16.7574L11 18.585V13H13ZM12 2C15.5934 2 18.5544 4.70761 18.9541 8.19395C21.2858 8.83154 23 10.9656 23 13.5C23 16.3688 20.8036 18.7246 18.0006 18.9776L18.0009 16.9644C19.6966 16.7214 21 15.2629 21 13.5C21 11.567 19.433 10 17.5 10C17.2912 10 17.0867 10.0183 16.8887 10.054C16.9616 9.7142 17 9.36158 17 9C17 6.23858 14.7614 4 12 4C9.23858 4 7 6.23858 7 9C7 9.36158 7.03838 9.7142 7.11205 10.0533C6.91331 10.0183 6.70879 10 6.5 10C4.567 10 3 11.567 3 13.5C3 15.2003 4.21241 16.6174 5.81986 16.934L6.00005 16.9646L6.00039 18.9776C3.19696 18.7252 1 16.3692 1 13.5C1 10.9656 2.71424 8.83154 5.04648 8.19411C5.44561 4.70761 8.40661 2 12 2Z"/></svg>

<svg xmlns="http://www.w3.org/2000/svg" viewBox="0 0 24 24">
    <g>
        <path fill="none" d="M0 0h24v24H0z"/>
        <path d="M13 13v5.585l1.828-1.828 1.415 1.415L12 22.414l-4.243-4.242 1.415-1.415L11 18.585V13h2zM12 2a7.001 7.001 0 0 1 6.954 6.194 5.5 5.5 0 0 1-.953 10.784v-2.014a3.5 3.5 0 1 0-1.112-6.91 5 5 0 1 0-9.777 0 3.5 3.5 0 0 0-1.292 6.88l.18.03v2.014a5.5 5.5 0 0 1-.954-10.784A7 7 0 0 1 12 2z"/>
    </g>
</svg>
